package/converter/svg/thin/microchip.svg

<svg xmlns="http://www.w3.org/2000/svg" viewBox="0 0 512 512"><!-- Font Awesome Pro 6.0.0-alpha2 by @fontawesome - https://fontawesome.com License - https://fontawesome.com/license (Commercial License) --><path d="M504 264C508.422 264 512 260.422 512 256S508.422 248 504 248H448V168H504C508.422 168 512 164.422 512 160S508.422 152 504 152H448C447.697 152 447.518 152.289 447.225 152.32C443.455 105.531 406.467 68.547 359.68 64.773C359.713 64.484 360 64.305 360 64V8C360 3.578 356.422 0 352 0S344 3.578 344 8V64H264V8C264 3.578 260.422 0 256 0S248 3.578 248 8V64H168V8C168 3.578 164.422 0 160 0S152 3.578 152 8V64C152 64.305 152.287 64.484 152.32 64.773C105.533 68.547 68.545 105.531 64.775 152.32C64.482 152.289 64.303 152 64 152H8C3.578 152 0 155.578 0 160S3.578 168 8 168H64V248H8C3.578 248 0 251.578 0 256S3.578 264 8 264H64V344H8C3.578 344 0 347.578 0 352S3.578 360 8 360H64C64.303 360 64.482 359.711 64.775 359.68C68.545 406.469 105.533 443.453 152.32 447.227C152.287 447.516 152 447.695 152 448V504C152 508.422 155.578 512 160 512S168 508.422 168 504V448H248V504C248 508.422 251.578 512 256 512S264 508.422 264 504V448H344V504C344 508.422 347.578 512 352 512S360 508.422 360 504V448C360 447.695 359.713 447.516 359.68 447.227C406.467 443.453 443.455 406.469 447.225 359.68C447.518 359.711 447.697 360 448 360H504C508.422 360 512 356.422 512 352S508.422 344 504 344H448V264H504ZM432 352C432 396.113 396.113 432 352 432H160C115.889 432 80 396.113 80 352V160C80 115.887 115.889 80 160 80H352C396.113 80 432 115.887 432 160V352ZM336 128H176C149.49 128 128 149.492 128 176V336C128 362.508 149.49 384 176 384H336C362.51 384 384 362.508 384 336V176C384 149.492 362.51 128 336 128ZM368 336C368 353.645 353.645 368 336 368H176C158.355 368 144 353.645 144 336V176C144 158.355 158.355 144 176 144H336C353.645 144 368 158.355 368 176V336Z"/></svg>

<svg xmlns="http://www.w3.org/2000/svg" viewBox="0 0 512 512"><!--! Font Awesome Pro 6.6.0 by @fontawesome - https://fontawesome.com License - https://fontawesome.com/license (Commercial License) Copyright 2024 Fonticons, Inc. --><path d="M168 8c0-4.4-3.6-8-8-8s-8 3.6-8 8l0 56-24 0c-35.3 0-64 28.7-64 64l0 24L8 152c-4.4 0-8 3.6-8 8s3.6 8 8 8l56 0 0 80L8 248c-4.4 0-8 3.6-8 8s3.6 8 8 8l56 0 0 80L8 344c-4.4 0-8 3.6-8 8s3.6 8 8 8l56 0 0 24c0 35.3 28.7 64 64 64l24 0 0 56c0 4.4 3.6 8 8 8s8-3.6 8-8l0-56 80 0 0 56c0 4.4 3.6 8 8 8s8-3.6 8-8l0-56 80 0 0 56c0 4.4 3.6 8 8 8s8-3.6 8-8l0-56 24 0c35.3 0 64-28.7 64-64l0-24 56 0c4.4 0 8-3.6 8-8s-3.6-8-8-8l-56 0 0-80 56 0c4.4 0 8-3.6 8-8s-3.6-8-8-8l-56 0 0-80 56 0c4.4 0 8-3.6 8-8s-3.6-8-8-8l-56 0 0-24c0-35.3-28.7-64-64-64l-24 0 0-56c0-4.4-3.6-8-8-8s-8 3.6-8 8l0 56-80 0 0-56c0-4.4-3.6-8-8-8s-8 3.6-8 8l0 56-80 0 0-56zm88 72l96 0 32 0c26.5 0 48 21.5 48 48l0 32 0 96 0 96 0 32c0 26.5-21.5 48-48 48l-32 0-96 0-96 0-32 0c-26.5 0-48-21.5-48-48l0-32 0-96 0-96 0-32c0-26.5 21.5-48 48-48l32 0 96 0zm112 80l0 192c0 8.8-7.2 16-16 16l-192 0c-8.8 0-16-7.2-16-16l0-192c0-8.8 7.2-16 16-16l192 0c8.8 0 16 7.2 16 16zM160 128c-17.7 0-32 14.3-32 32l0 192c0 17.7 14.3 32 32 32l192 0c17.7 0 32-14.3 32-32l0-192c0-17.7-14.3-32-32-32l-192 0z"/></svg>
